storage/app/icons/phosphoricons/light/warehouse-light.svg

<svg xmlns="http://www.w3.org/2000/svg" fill="currentColor" viewBox="0 0 256 256"><path d="M240 186h-10V56.28l11.26-2.41a6 6 0 1 0-2.52-11.74l-224 48a6 6 0 0 0 2.52 11.74L26 100v86H16a6 6 0 0 0 0 12h224a6 6 0 0 0 0-12M38 97.42l180-38.57V186h-28v-58a6 6 0 0 0-6-6H72a6 6 0 0 0-6 6v58H38ZM178 154H78v-20h100ZM78 166h100v20H78Z"/></svg>

<svg xmlns="http://www.w3.org/2000/svg" viewBox="0 0 256 256" fill="currentColor"><path d="M240,186H230V56.28l11.26-2.41a6,6,0,1,0-2.52-11.74l-224,48a6,6,0,0,0,2.52,11.74L26,100v86H16a6,6,0,0,0,0,12H240a6,6,0,0,0,0-12ZM38,97.42,218,58.85V186H190V128a6,6,0,0,0-6-6H72a6,6,0,0,0-6,6v58H38ZM178,154H78V134H178ZM78,166H178v20H78Z"/></svg>
